X: 4071
T: TAIL TODDLE
R: Reel.
%R: reel
B: James Kerr "Merry Melodies" v.4 p.10 #71
Z: 2016 John Chambers <jc:trillian.mit.edu>
M: C|
L: 1/8
K: D
A |:\
d2fd g2fe | d2fd e2cA |\
d2fd (ge)fd | egfa e2(cA) ::\
g2(dB) BgdB | g2dB e2cA |\
g2(dB) BgdB | A/A/A (af) e2(cA) :|

%%sep 1 1 500
%%sep 1 1 500

